X:1
T:Branle de la Hai
L:1/8
M:4/4
O:France
R:Branle
Z:Joe Wass
K:G major
E/F/|: GG  GA F/E/D DD/E/|FF DF E3 E/F/|GG GA FD DF| [1 ED D^C D3 E/F/:| [2 ED D^C D3 D|
|: GF GA B3 c| BA/G/ AA G3 E | c3B A3A |[1 GG FF E3 D:| [2 GG FF E3 || 



